data/tilesets/flags/gaul.svg

<?xml version="1.0" encoding="UTF-8" standalone="no"?>
<!-- Created with Inkscape (http://www.inkscape.org/) -->

<svg
   width="658.125pt"
   height="438.75pt"
   id="svg2820"
   sodipodi:version="0.32"
   inkscape:version="1.1.1 (3bf5ae0d25, 2021-09-20)"
   sodipodi:docname="gaul.svg"
   inkscape:export-filename="/Users/daniel/Desktop/gunfani2.png"
   inkscape:export-xdpi="90.000000"
   inkscape:export-ydpi="90.000000"
   version="1.1"
   xmlns:inkscape="http://www.inkscape.org/namespaces/inkscape"
   xmlns:sodipodi="http://sodipodi.sourceforge.net/DTD/sodipodi-0.dtd"
   xmlns="http://www.w3.org/2000/svg"
   xmlns:svg="http://www.w3.org/2000/svg"
   xmlns:rdf="http://www.w3.org/1999/02/22-rdf-syntax-ns#"
   xmlns:cc="http://creativecommons.org/ns#"
   xmlns:dc="http://purl.org/dc/elements/1.1/">
  <defs
     id="defs2822" />
  <sodipodi:namedview
     id="base"
     pagecolor="#ffffff"
     bordercolor="#666666"
     borderopacity="1.0"
     inkscape:pageopacity="0.0"
     inkscape:pageshadow="2"
     inkscape:zoom="0.35"
     inkscape:cx="372.85714"
     inkscape:cy="265.71429"
     inkscape:document-units="px"
     inkscape:current-layer="layer1"
     inkscape:window-width="844"
     inkscape:window-height="451"
     inkscape:window-x="601"
     inkscape:window-y="64"
     inkscape:pagecheckerboard="0"
     showgrid="false"
     inkscape:window-maximized="0" />
  <metadata
     id="metadata2825">
    <rdf:RDF>
      <cc:Work
         rdf:about="">
        <dc:format>image/svg+xml</dc:format>
        <dc:type
           rdf:resource="http://purl.org/dc/dcmitype/StillImage" />
      </cc:Work>
    </rdf:RDF>
  </metadata>
  <g
     inkscape:label="Layer 1"
     inkscape:groupmode="layer"
     id="layer1">
    <rect
       style="fill:#000099;fill-opacity:1;stroke:none;stroke-width:4.56826;stroke-miterlimit:4;stroke-dasharray:none;stroke-opacity:1"
       id="rect1313"
       width="877.5"
       height="585"
       x="0"
       y="-1.7763568e-15" />
    <path
       id="path1103"
       d="M 407.01647,557.74194 C 354.21325,550.54539 303.71374,528.74592 262.8818,494.35645 185.8014,428.09769 152.36636,316.06353 180.48176,218.35562 c 12.00843,-40.02486 31.26275,-78.68484 58.81792,-110.28484 36.12371,-35.869791 80.69985,-64.257282 130.66806,-75.913026 69.52262,-19.977146 147.14733,-8.133115 208.35844,29.950602 70.3777,41.174404 116.64278,117.305704 127.50614,197.351144 2.51765,37.76866 2.14371,76.53063 -10.94514,112.54511 -21.17401,68.10689 -69.95997,127.55574 -134.69521,158.34583 -39.86621,20.38636 -84.64878,29.6841 -129.32321,28.55851 -7.95921,-0.0302 -15.94739,-0.15462 -23.85229,-1.16701 z m 85.21551,-38.83076 C 566.63915,502.34176 630.47469,446.6397 657.58747,375.47952 674.37449,335.28446 674.61877,290.63255 669.47938,248.04394 652.54478,149.884 565.70324,66.765972 466.079,57.170269 418.55788,52.955168 368.99401,58.871014 327.23301,83.296143 254.5687,123.56886 201.57349,203.11434 204.48526,287.70116 c -4.83966,90.06292 51.95625,177.49595 133.08412,214.96746 35.88183,17.10627 76.06296,24.1947 115.64102,20.89962 13.11862,-0.34218 26.25302,-1.50124 39.02158,-4.65706 z M 300.22075,433.3826 c -22.90835,-4.54751 -40.54232,-20.06256 -52.91197,-39.29364 -13.01409,-21.866 -10.362,-59.46393 8.80185,-77.91729 16.89385,-17.36533 39.33683,-29.17008 65.1311,-20.30731 17.21642,11.66754 36.4617,27.03442 36.30865,49.51897 1.29889,23.06221 -20.21344,43.82731 -42.52044,44.68915 0.45572,-9.17825 22.85115,-17.31899 17.77981,-37.71887 -2.60656,-26.38748 -39.18505,-28.73013 -52.4776,-10.2112 -10.8552,21.62036 1.8026,52.9798 27.29752,56.20486 28.01487,-0.0267 53.92833,-16.87095 71.06912,-38.28917 14.07985,-13.74813 17.01399,-34.00515 20.83692,-52.42042 0.60884,-31.21627 -23.46699,-55.3287 -32.49754,-83.93456 -11.54504,-25.51241 -13.41463,-54.67468 -7.42783,-81.81711 7.90721,-38.35913 46.76317,-66.98863 85.85013,-61.666032 22.23097,1.479299 44.4473,13.847814 52.41273,35.483032 10.66549,18.02773 11.92943,42.55658 2.12196,61.13804 -13.59503,30.2241 -58.0151,36.28279 -81.66333,14.80632 -12.98225,-9.98397 -15.08518,-41.76514 -6.01797,-49.89942 -1.81762,23.28839 22.37805,39.17881 43.70596,31.43925 25.24859,-9.92835 17.7524,-55.28377 -10.00241,-55.23575 -11.21561,0.41458 -24.25506,-1.43709 -32.98716,7.07495 -20.73325,14.03274 -19.30053,43.13426 -14.95361,64.96597 1.88758,25.73828 17.54447,48.23583 39.72539,60.81057 21.55679,16.76643 49.99638,8.90101 74.99193,13.53147 40.89285,4.40747 84.3935,20.39477 106.47066,57.31063 11.49199,16.68679 12.2839,39.88739 9.39535,57.4968 -5.21549,22.22968 -22.47416,41.29633 -42.61794,50.90606 -18.85526,4.97878 -40.79459,6.76179 -58.66525,-5.14617 -15.38664,-6.68295 -30.77299,-21.04633 -31.66662,-46.92986 -2.00747,-22.25155 15.86973,-40.61549 34.12065,-50.36445 12.47059,-8.44153 45.58555,2.88728 41.63665,14.53267 -14.14157,-0.25764 -31.43078,-1.8003 -38.301,13.92374 -15.93452,22.23902 10.28696,48.72248 33.94946,43.17314 23.96936,-1.64857 29.27026,-28.4347 25.06708,-47.72936 -1.6642,-23.36109 -24.09761,-32.224 -43.303,-39.60342 -24.90306,-8.98416 -53.38168,-11.26743 -77.53706,1.41551 -23.62986,6.40957 -32.09811,30.13962 -45.41409,47.8312 -15.13747,28.46374 -40.78878,50.91998 -69.19532,65.45197 -17.68397,6.99126 -37.67329,11.56006 -56.51278,6.77973 z M 439.6701,308.3221 c 9.64645,-10.08448 44.99933,-27.65776 12.71776,-32.13558 -15.63411,-5.23875 -49.0049,-24.56424 -37.05734,7.56051 5.14616,14.7557 0.39068,50.91394 24.33958,24.57507 z"
       style="fill:#ffd700;fill-opacity:1"
       sodipodi:nodetypes="ccccccccccccccccccccccccccccccccccccccccccccccccccccccccccccccc" />
  </g>
</svg>

<?xml version="1.0" encoding="UTF-8" standalone="no"?>
<!-- Created with Inkscape (http://www.inkscape.org/) -->
<svg
   xmlns:dc="http://purl.org/dc/elements/1.1/"
   xmlns:cc="http://web.resource.org/cc/"
   xmlns:rdf="http://www.w3.org/1999/02/22-rdf-syntax-ns#"
   xmlns:svg="http://www.w3.org/2000/svg"
   xmlns="http://www.w3.org/2000/svg"
   xmlns:sodipodi="http://inkscape.sourceforge.net/DTD/sodipodi-0.dtd"
   xmlns:inkscape="http://www.inkscape.org/namespaces/inkscape"
   width="702.00000pt"
   height="468.00000pt"
   id="svg2820"
   sodipodi:version="0.32"
   inkscape:version="0.42"
   sodipodi:docbase="/home/daniel/Desktop"
   sodipodi:docname="celt.svg"
   inkscape:export-filename="/Users/daniel/Desktop/gunfani2.png"
   inkscape:export-xdpi="90.000000"
   inkscape:export-ydpi="90.000000">
  <defs
     id="defs2822" />
  <sodipodi:namedview
     id="base"
     pagecolor="#ffffff"
     bordercolor="#666666"
     borderopacity="1.0"
     inkscape:pageopacity="0.0"
     inkscape:pageshadow="2"
     inkscape:zoom="0.35000000"
     inkscape:cx="375.00000"
     inkscape:cy="267.07143"
     inkscape:document-units="px"
     inkscape:current-layer="layer1"
     inkscape:window-width="753"
     inkscape:window-height="513"
     inkscape:window-x="469"
     inkscape:window-y="116" />
  <metadata
     id="metadata2825">
    <rdf:RDF>
      <cc:Work
         rdf:about="">
        <dc:format>image/svg+xml</dc:format>
        <dc:type
           rdf:resource="http://purl.org/dc/dcmitype/StillImage" />
      </cc:Work>
    </rdf:RDF>
  </metadata>
  <g
     inkscape:label="Layer 1"
     inkscape:groupmode="layer"
     id="layer1">
    <rect
       style="fill:#000099;fill-opacity:1.0000000;stroke:none;stroke-width:4.5682597;stroke-miterlimit:4.0000000;stroke-dasharray:none;stroke-opacity:1.0000000"
       id="rect1313"
       width="877.50000"
       height="585.00000"
       x="0.0000000"
       y="-1.7763568e-15" />
    <path
       id="path1103"
       d="M 407.01647,557.74194 C 354.21325,550.54539 303.71374,528.74592 262.88180,494.35645 C 185.80140,428.09769 152.36636,316.06353 180.48176,218.35562 C 192.49019,178.33076 211.74451,139.67078 239.29968,108.07078 C 275.42339,72.200989 319.99953,43.813498 369.96774,32.157754 C 439.49036,12.180608 517.11507,24.024639 578.32618,62.108356 C 648.70388,103.28276 694.96896,179.41406 705.83232,259.45950 C 708.34997,297.22816 707.97603,335.99013 694.88718,372.00461 C 673.71317,440.11150 624.92721,499.56035 560.19197,530.35044 C 520.32576,550.73680 475.54319,560.03454 430.86876,558.90895 C 422.90955,558.87875 414.92137,558.75433 407.01647,557.74194 z M 492.23198,518.91118 C 566.63915,502.34176 630.47469,446.63970 657.58747,375.47952 C 674.37449,335.28446 674.61877,290.63255 669.47938,248.04394 C 652.54478,149.88400 565.70324,66.765972 466.07900,57.170269 C 418.55788,52.955168 368.99401,58.871014 327.23301,83.296143 C 254.56870,123.56886 201.57349,203.11434 204.48526,287.70116 C 199.64560,377.76408 256.44151,465.19711 337.56938,502.66862 C 373.45121,519.77489 413.63234,526.86332 453.21040,523.56824 C 466.32902,523.22606 479.46342,522.06700 492.23198,518.91118 z M 300.22075,433.38260 C 277.31240,428.83509 259.67843,413.32004 247.30878,394.08896 C 234.29469,372.22296 236.94678,334.62503 256.11063,316.17167 C 273.00448,298.80634 295.44746,287.00159 321.24173,295.86436 C 338.45815,307.53190 357.70343,322.89878 357.55038,345.38333 C 358.84927,368.44554 337.33694,389.21064 315.02994,390.07248 C 315.48566,380.89423 337.88109,372.75349 332.80975,352.35361 C 330.20319,325.96613 293.62470,323.62348 280.33215,342.14241 C 269.47695,363.76277 282.13475,395.12221 307.62967,398.34727 C 335.64454,398.32057 361.55800,381.47632 378.69879,360.05810 C 392.77864,346.30997 395.71278,326.05295 399.53571,307.63768 C 400.14455,276.42141 376.06872,252.30898 367.03817,223.70312 C 355.49313,198.19071 353.62354,169.02844 359.61034,141.88601 C 367.51755,103.52688 406.37351,74.897380 445.46047,80.219978 C 467.69144,81.699277 489.90777,94.067792 497.87320,115.70301 C 508.53869,133.73074 509.80263,158.25959 499.99516,176.84105 C 486.40013,207.06515 441.98006,213.12384 418.33183,191.64737 C 405.34958,181.66340 403.24665,149.88223 412.31386,141.74795 C 410.49624,165.03634 434.69191,180.92676 456.01982,173.18720 C 481.26841,163.25885 473.77222,117.90343 446.01741,117.95145 C 434.80180,118.36603 421.76235,116.51436 413.03025,125.02640 C 392.29700,139.05914 393.72972,168.16066 398.07664,189.99237 C 399.96422,215.73065 415.62111,238.22820 437.80203,250.80294 C 459.35882,267.56937 487.79841,259.70395 512.79396,264.33441 C 553.68681,268.74188 597.18746,284.72918 619.26462,321.64504 C 630.75661,338.33183 631.54852,361.53243 628.65997,379.14184 C 623.44448,401.37152 606.18581,420.43817 586.04203,430.04790 C 567.18677,435.02668 545.24744,436.80969 527.37678,424.90173 C 511.99014,418.21878 496.60379,403.85540 495.71016,377.97187 C 493.70269,355.72032 511.57989,337.35638 529.83081,327.60742 C 542.30140,319.16589 575.41636,330.49470 571.46746,342.14009 C 557.32589,341.88245 540.03668,340.33979 533.16646,356.06383 C 517.23194,378.30285 543.45342,404.78631 567.11592,399.23697 C 591.08528,397.58840 596.38618,370.80227 592.18300,351.50761 C 590.51880,328.14652 568.08539,319.28361 548.88000,311.90419 C 523.97694,302.92003 495.49832,300.63676 471.34294,313.31970 C 447.71308,319.72927 439.24483,343.45932 425.92885,361.15090 C 410.79138,389.61464 385.14007,412.07088 356.73353,426.60287 C 339.04956,433.59413 319.06024,438.16293 300.22075,433.38260 z M 439.67010,308.32210 C 449.31655,298.23762 484.66943,280.66434 452.38786,276.18652 C 436.75375,270.94777 403.38296,251.62228 415.33052,283.74703 C 420.47668,298.50273 415.72120,334.66097 439.67010,308.32210 z "
       style="fill:#ffd700;fill-opacity:1.0000000"
       sodipodi:nodetypes="ccccccccccccccccccccccccccccccccccccccccccccccccccccccccccccccc" />
  </g>
</svg>
